Sources/FrostedUI/Resources/Icons.xcassets/logout20.imageset/logout-20.svg

<svg width="20" height="20" viewBox="0 0 20 20" fill="none" xmlns="http://www.w3.org/2000/svg" data-fui-icon="true">
  <path
    d="M9.45215 1.25C11.8258 1.25 13.75 3.17423 13.75 5.54785C13.75 5.96205 13.4142 6.29785 13 6.29785C12.5858 6.29785 12.25 5.96205 12.25 5.54785C12.25 4.00265 10.9973 2.75 9.45215 2.75H5.75C4.09315 2.75 2.75 4.09315 2.75 5.75V14.25C2.75 15.9068 4.09315 17.25 5.75 17.25H9.45215C10.9973 17.25 12.25 15.9973 12.25 14.4521C12.25 14.0379 12.5858 13.7021 13 13.7021C13.4142 13.7021 13.75 14.0379 13.75 14.4521C13.75 16.8258 11.8258 18.75 9.45215 18.75H5.75C3.26473 18.75 1.25 16.7353 1.25 14.25V5.75C1.25 3.26472 3.26472 1.25 5.75 1.25H9.45215ZM16.0312 6.28906C16.3547 6.03031 16.8272 6.0828 17.0859 6.40625L19.5859 9.53125C19.8051 9.80516 19.8051 10.1948 19.5859 10.4688L17.0859 13.5938C16.8272 13.9172 16.3547 13.9697 16.0312 13.7109C15.7078 13.4522 15.6553 12.9797 15.9141 12.6562L17.4395 10.75H8.6875C8.27329 10.75 7.9375 10.4142 7.9375 10C7.9375 9.58579 8.27329 9.25 8.6875 9.25H17.4395L15.9141 7.34375C15.6553 7.0203 15.7078 6.54782 16.0312 6.28906Z"
    fill="currentColor"
  />
</svg>

<svg xmlns="http://www.w3.org/2000/svg" width="20" height="20" fill="none" data-fui-icon="true" viewBox="0 0 20 20"><path fill="currentColor" d="M9.452 1.25a4.3 4.3 0 0 1 4.298 4.298.75.75 0 0 1-1.5 0A2.8 2.8 0 0 0 9.452 2.75H5.75a3 3 0 0 0-3 3v8.5a3 3 0 0 0 3 3h3.702a2.8 2.8 0 0 0 2.798-2.798.75.75 0 0 1 1.5 0 4.3 4.3 0 0 1-4.298 4.298H5.75a4.5 4.5 0 0 1-4.5-4.5v-8.5a4.5 4.5 0 0 1 4.5-4.5zm6.58 5.04a.75.75 0 0 1 1.054.116l2.5 3.125a.75.75 0 0 1 0 .938l-2.5 3.125a.75.75 0 0 1-1.172-.938l1.525-1.906H8.689a.75.75 0 0 1 0-1.5h8.751l-1.525-1.906a.75.75 0 0 1 .117-1.055"/></svg>
